src/Assets/layer7.svg

<svg version="1.2" xmlns="http://www.w3.org/2000/svg" viewBox="0 0 960 141" width="960" height="141">
	<title>layer7-svg</title>
	<style>
		.s0 { fill: #7019f3 } 
		.s1 { fill: #8e7df8 } 
		.s2 { fill: #af65d8 } 
		.s3 { fill: #c24db4 } 
		.s4 { fill: #c9368e } 
		.s5 { fill: #c62368 } 
	</style>
	<path id="Layer" class="s0" d="m0 0h960v300h-960z"/>
	<path id="Layer" class="s1" d="m0 132l12.3-0.2c12.4-0.1 37-0.5 61.7-1.5 24.7-1 49.3-2.6 74-2 24.7 0.7 49.3 3.7 73.8 5 24.5 1.4 48.9 1 73.4-4.3 24.5-5.3 49.1-15.7 73.8-17.8 24.7-2.2 49.3 3.8 74 9.5 24.7 5.6 49.3 11 74 10 24.7-1 49.3-8.4 74-13 24.7-4.7 49.3-6.7 73.8-6.4 24.5 0.4 48.9 3 73.4 5.5 24.5 2.5 49.1 4.9 73.8 6 24.7 1.2 49.3 1.2 74 2.9 24.7 1.6 49.3 5 61.7 6.6l12.3 1.7v-134h-12.3c-12.4 0-37 0-61.7 0-24.7 0-49.3 0-74 0q-37 0-73.8 0c-24.5 0-48.9 0-73.4 0q-36.8 0-73.8 0c-24.7 0-49.3 0-74 0-24.7 0-49.3 0-74 0-24.7 0-49.3 0-74 0q-37.1 0-73.8 0c-24.5 0-48.9 0-73.4 0q-36.7 0-73.8 0c-24.7 0-49.3 0-74 0-24.7 0-49.3 0-61.7 0h-12.3z"/>
	<path id="Layer" class="s2" d="m0 102l12.3 1.5c12.4 1.5 37 4.5 61.7 6.2 24.7 1.6 49.3 2 74-1.5 24.7-3.5 49.3-10.9 73.8-13.5 24.5-2.7 48.9-0.7 73.4 0.8q36.7 2.3 73.8 3c24.7 0.5 49.3 0.5 74-2.8 24.7-3.4 49.3-10 74-13.4 24.7-3.3 49.3-3.3 74-2.8 24.7 0.5 49.3 1.5 73.8 5.2 24.5 3.6 48.9 10 73.4 14.6 24.5 4.7 49.1 7.7 73.8 10 24.7 2.4 49.3 4 74-0.1 24.7-4.2 49.3-14.2 61.7-19.2l12.3-5v-85h-12.3c-12.4 0-37 0-61.7 0-24.7 0-49.3 0-74 0q-37 0-73.8 0c-24.5 0-48.9 0-73.4 0q-36.8 0-73.8 0c-24.7 0-49.3 0-74 0-24.7 0-49.3 0-74 0-24.7 0-49.3 0-74 0q-37.1 0-73.8 0c-24.5 0-48.9 0-73.4 0q-36.7 0-73.8 0c-24.7 0-49.3 0-74 0-24.7 0-49.3 0-61.7 0h-12.3z"/>
	<path id="Layer" class="s3" d="m0 70l12.3-2.3c12.4-2.4 37-7 61.7-8.2 24.7-1.2 49.3 1.2 74 4.7 24.7 3.5 49.3 8.1 73.8 10.1 24.5 2 48.9 1.4 73.4 0.5 24.5-0.8 49.1-1.8 73.8-2.5 24.7-0.6 49.3-1 74-2.1 24.7-1.2 49.3-3.2 74-6.4 24.7-3.1 49.3-7.5 74-3.1 24.7 4.3 49.3 17.3 73.8 19.1 24.5 1.9 48.9-7.5 73.4-8.8 24.5-1.3 49.1 5.3 73.8 8.7 24.7 3.3 49.3 3.3 74-1.7 24.7-5 49.3-15 61.7-20l12.3-5v-53h-12.3c-12.4 0-37 0-61.7 0-24.7 0-49.3 0-74 0q-37 0-73.8 0c-24.5 0-48.9 0-73.4 0q-36.8 0-73.8 0c-24.7 0-49.3 0-74 0-24.7 0-49.3 0-74 0-24.7 0-49.3 0-74 0q-37.1 0-73.8 0c-24.5 0-48.9 0-73.4 0q-36.7 0-73.8 0c-24.7 0-49.3 0-74 0-24.7 0-49.3 0-61.7 0h-12.3z"/>
	<path id="Layer" class="s4" d="m0 66l12.3-5.2c12.4-5.1 37-15.5 61.7-20.6 24.7-5.2 49.3-5.2 74-5.2 24.7 0 49.3 0 73.8 2.2 24.5 2.1 48.9 6.5 73.4 9.3 24.5 2.8 49.1 4.2 73.8 7.2 24.7 3 49.3 7.6 74 7.3 24.7-0.3 49.3-5.7 74-8.3 24.7-2.7 49.3-2.7 74-1.4 24.7 1.4 49.3 4 73.8 1.5 24.5-2.5 48.9-10.1 73.4-9.3 24.5 0.8 49.1 10.2 73.8 10.7 24.7 0.5 49.3-7.9 74-13.2 24.7-5.3 49.3-7.7 61.7-8.8l12.3-1.2v-31h-12.3c-12.4 0-37 0-61.7 0-24.7 0-49.3 0-74 0q-37 0-73.8 0c-24.5 0-48.9 0-73.4 0q-36.8 0-73.8 0c-24.7 0-49.3 0-74 0-24.7 0-49.3 0-74 0-24.7 0-49.3 0-74 0q-37.1 0-73.8 0c-24.5 0-48.9 0-73.4 0q-36.7 0-73.8 0c-24.7 0-49.3 0-74 0-24.7 0-49.3 0-61.7 0h-12.3z"/>
	<path id="Layer" class="s5" d="m0 26l12.3 1.7c12.4 1.6 37 5 61.7 7.5 24.7 2.5 49.3 4.1 74 2.8 24.7-1.3 49.3-5.7 73.8-7.7 24.5-2 48.9-1.6 73.4-4 24.5-2.3 49.1-7.3 73.8-9.1 24.7-1.9 49.3-0.5 74 0.8 24.7 1.3 49.3 2.7 74 3.5 24.7 0.8 49.3 1.2 74 1.3 24.7 0.2 49.3 0.2 73.8-2 24.5-2.1 48.9-6.5 73.4-3.5 24.5 3 49.1 13.4 73.8 12.9 24.7-0.5 49.3-11.9 74-15.2 24.7-3.3 49.3 1.3 61.7 3.7l12.3 2.3v-21h-12.3c-12.4 0-37 0-61.7 0-24.7 0-49.3 0-74 0q-37 0-73.8 0c-24.5 0-48.9 0-73.4 0q-36.8 0-73.8 0c-24.7 0-49.3 0-74 0-24.7 0-49.3 0-74 0-24.7 0-49.3 0-74 0q-37.1 0-73.8 0c-24.5 0-48.9 0-73.4 0q-36.7 0-73.8 0c-24.7 0-49.3 0-74 0-24.7 0-49.3 0-61.7 0h-12.3z"/>
</svg>

<svg id="visual" viewBox="0 0 960 300" width="960" height="300" xmlns="http://www.w3.org/2000/svg" xmlns:xlink="http://www.w3.org/1999/xlink" version="1.1"><rect x="0" y="0" width="960" height="300" fill="#7019f3"></rect><path d="M0 132L12.3 131.8C24.7 131.7 49.3 131.3 74 130.3C98.7 129.3 123.3 127.7 148 128.3C172.7 129 197.3 132 221.8 133.3C246.3 134.7 270.7 134.3 295.2 129C319.7 123.7 344.3 113.3 369 111.2C393.7 109 418.3 115 443 120.7C467.7 126.3 492.3 131.7 517 130.7C541.7 129.7 566.3 122.3 591 117.7C615.7 113 640.3 111 664.8 111.3C689.3 111.7 713.7 114.3 738.2 116.8C762.7 119.3 787.3 121.7 812 122.8C836.7 124 861.3 124 886 125.7C910.7 127.3 935.3 130.7 947.7 132.3L960 134L960 0L947.7 0C935.3 0 910.7 0 886 0C861.3 0 836.7 0 812 0C787.3 0 762.7 0 738.2 0C713.7 0 689.3 0 664.8 0C640.3 0 615.7 0 591 0C566.3 0 541.7 0 517 0C492.3 0 467.7 0 443 0C418.3 0 393.7 0 369 0C344.3 0 319.7 0 295.2 0C270.7 0 246.3 0 221.8 0C197.3 0 172.7 0 148 0C123.3 0 98.7 0 74 0C49.3 0 24.7 0 12.3 0L0 0Z" fill="#8e7df8"></path><path d="M0 102L12.3 103.5C24.7 105 49.3 108 74 109.7C98.7 111.3 123.3 111.7 148 108.2C172.7 104.7 197.3 97.3 221.8 94.7C246.3 92 270.7 94 295.2 95.5C319.7 97 344.3 98 369 98.5C393.7 99 418.3 99 443 95.7C467.7 92.3 492.3 85.7 517 82.3C541.7 79 566.3 79 591 79.5C615.7 80 640.3 81 664.8 84.7C689.3 88.3 713.7 94.7 738.2 99.3C762.7 104 787.3 107 812 109.3C836.7 111.7 861.3 113.3 886 109.2C910.7 105 935.3 95 947.7 90L960 85L960 0L947.7 0C935.3 0 910.7 0 886 0C861.3 0 836.7 0 812 0C787.3 0 762.7 0 738.2 0C713.7 0 689.3 0 664.8 0C640.3 0 615.7 0 591 0C566.3 0 541.7 0 517 0C492.3 0 467.7 0 443 0C418.3 0 393.7 0 369 0C344.3 0 319.7 0 295.2 0C270.7 0 246.3 0 221.8 0C197.3 0 172.7 0 148 0C123.3 0 98.7 0 74 0C49.3 0 24.7 0 12.3 0L0 0Z" fill="#af65d8"></path><path d="M0 70L12.3 67.7C24.7 65.3 49.3 60.7 74 59.5C98.7 58.3 123.3 60.7 148 64.2C172.7 67.7 197.3 72.3 221.8 74.3C246.3 76.3 270.7 75.7 295.2 74.8C319.7 74 344.3 73 369 72.3C393.7 71.7 418.3 71.3 443 70.2C467.7 69 492.3 67 517 63.8C541.7 60.7 566.3 56.3 591 60.7C615.7 65 640.3 78 664.8 79.8C689.3 81.7 713.7 72.3 738.2 71C762.7 69.7 787.3 76.3 812 79.7C836.7 83 861.3 83 886 78C910.7 73 935.3 63 947.7 58L960 53L960 0L947.7 0C935.3 0 910.7 0 886 0C861.3 0 836.7 0 812 0C787.3 0 762.7 0 738.2 0C713.7 0 689.3 0 664.8 0C640.3 0 615.7 0 591 0C566.3 0 541.7 0 517 0C492.3 0 467.7 0 443 0C418.3 0 393.7 0 369 0C344.3 0 319.7 0 295.2 0C270.7 0 246.3 0 221.8 0C197.3 0 172.7 0 148 0C123.3 0 98.7 0 74 0C49.3 0 24.7 0 12.3 0L0 0Z" fill="#c24db4"></path><path d="M0 66L12.3 60.8C24.7 55.7 49.3 45.3 74 40.2C98.7 35 123.3 35 148 35C172.7 35 197.3 35 221.8 37.2C246.3 39.3 270.7 43.7 295.2 46.5C319.7 49.3 344.3 50.7 369 53.7C393.7 56.7 418.3 61.3 443 61C467.7 60.7 492.3 55.3 517 52.7C541.7 50 566.3 50 591 51.3C615.7 52.7 640.3 55.3 664.8 52.8C689.3 50.3 713.7 42.7 738.2 43.5C762.7 44.3 787.3 53.7 812 54.2C836.7 54.7 861.3 46.3 886 41C910.7 35.7 935.3 33.3 947.7 32.2L960 31L960 0L947.7 0C935.3 0 910.7 0 886 0C861.3 0 836.7 0 812 0C787.3 0 762.7 0 738.2 0C713.7 0 689.3 0 664.8 0C640.3 0 615.7 0 591 0C566.3 0 541.7 0 517 0C492.3 0 467.7 0 443 0C418.3 0 393.7 0 369 0C344.3 0 319.7 0 295.2 0C270.7 0 246.3 0 221.8 0C197.3 0 172.7 0 148 0C123.3 0 98.7 0 74 0C49.3 0 24.7 0 12.3 0L0 0Z" fill="#c9368e"></path><path d="M0 26L12.3 27.7C24.7 29.3 49.3 32.7 74 35.2C98.7 37.7 123.3 39.3 148 38C172.7 36.7 197.3 32.3 221.8 30.3C246.3 28.3 270.7 28.7 295.2 26.3C319.7 24 344.3 19 369 17.2C393.7 15.3 418.3 16.7 443 18C467.7 19.3 492.3 20.7 517 21.5C541.7 22.3 566.3 22.7 591 22.8C615.7 23 640.3 23 664.8 20.8C689.3 18.7 713.7 14.3 738.2 17.3C762.7 20.3 787.3 30.7 812 30.2C836.7 29.7 861.3 18.3 886 15C910.7 11.7 935.3 16.3 947.7 18.7L960 21L960 0L947.7 0C935.3 0 910.7 0 886 0C861.3 0 836.7 0 812 0C787.3 0 762.7 0 738.2 0C713.7 0 689.3 0 664.8 0C640.3 0 615.7 0 591 0C566.3 0 541.7 0 517 0C492.3 0 467.7 0 443 0C418.3 0 393.7 0 369 0C344.3 0 319.7 0 295.2 0C270.7 0 246.3 0 221.8 0C197.3 0 172.7 0 148 0C123.3 0 98.7 0 74 0C49.3 0 24.7 0 12.3 0L0 0Z" fill="#c62368"></path></svg>
